SVG_Azure_Grouped/Office365/O365 - Project.svg

<?xml version="1.0" encoding="UTF-8" standalone="no"?>
<!-- Generated by Microsoft Visio, SVG Export O365 - Project.svg Page-1 -->

<svg
   xmlns:dc="http://purl.org/dc/elements/1.1/"
   xmlns:cc="http://creativecommons.org/ns#"
   xmlns:rdf="http://www.w3.org/1999/02/22-rdf-syntax-ns#"
   xmlns:svg="http://www.w3.org/2000/svg"
   xmlns="http://www.w3.org/2000/svg"
   xmlns:sodipodi="http://sodipodi.sourceforge.net/DTD/sodipodi-0.dtd"
   xmlns:inkscape="http://www.inkscape.org/namespaces/inkscape"
   width="0.78739959in"
   height="0.78739959in"
   viewBox="0 0 56.692901 56.692709"
   xml:space="preserve"
   class="st9"
   version="1.1"
   id="svg64"
   sodipodi:docname="O365 - Project.svg"
   style="font-size:12px;overflow:visible;color-interpolation-filters:sRGB;fill:none;fill-rule:evenodd;stroke-linecap:square;stroke-miterlimit:3"
   inkscape:version="0.92.5 (2060ec1f9f, 2020-04-08)"><metadata
   id="metadata70"><rdf:RDF><cc:Work
       rdf:about=""><dc:format>image/svg+xml</dc:format><dc:type
         rdf:resource="http://purl.org/dc/dcmitype/StillImage" /></cc:Work></rdf:RDF></metadata><defs
   id="defs68" /><sodipodi:namedview
   pagecolor="#ffffff"
   bordercolor="#666666"
   borderopacity="1"
   objecttolerance="10"
   gridtolerance="10"
   guidetolerance="10"
   inkscape:pageopacity="0"
   inkscape:pageshadow="2"
   inkscape:window-width="640"
   inkscape:window-height="480"
   id="namedview66"
   showgrid="false"
   inkscape:zoom="1.6216347"
   inkscape:cx="37.795181"
   inkscape:cy="27.412078"
   inkscape:window-x="0"
   inkscape:window-y="0"
   inkscape:window-maximized="0"
   inkscape:current-layer="svg64" />
	<style
   type="text/css"
   id="style2">
	<![CDATA[
		.st1 {fill:#33c481;stroke:none;stroke-linecap:butt;stroke-width:18.4407}
		.st2 {fill:#185c37;stroke:none;stroke-linecap:butt;stroke-width:18.4407}
		.st3 {fill:#21a366;stroke:none;stroke-linecap:butt;stroke-width:18.4407}
		.st4 {fill:#000000;fill-opacity:0.098;stroke:none;stroke-linecap:butt;stroke-width:18.4407}
		.st5 {fill:#000000;fill-opacity:0.2;stroke:none;stroke-linecap:butt;stroke-width:18.4407}
		.st6 {fill:#107c41;stroke:none;stroke-linecap:butt;stroke-width:18.4407}
		.st7 {fill:#f9f7f7;stroke:none;stroke-linecap:butt;stroke-width:18.4407}
		.st8 {fill:none;stroke:none;stroke-linecap:butt;stroke-width:18.4407}
		.st9 {fill:none;fill-rule:evenodd;font-size:12px;overflow:visible;stroke-linecap:square;stroke-miterlimit:3}
	]]>
	</style>

	<g
   id="g62"
   transform="translate(-18.4407,-18.440891)">
		<title
   id="title4">Page-1</title>
		<g
   id="group20795-1"
   transform="translate(18.4407,-34.0157)">
			<title
   id="title6">O365 - Project.20795</title>
			<g
   id="group20796-2">
				<title
   id="title8">_32</title>
				<g
   id="shape20797-3"
   transform="translate(7.08661,-37.2047)">
					<title
   id="title10">path2</title>
					<path
   d="m 2.24,93.2 h 25.64 a 2.23583,2.23583 90 0 1 2.24,2.24 v 13.71 H 0 V 95.44 A 2.23583,2.23583 90 0 1 2.24,93.2 Z"
   class="st1"
   id="path12"
   inkscape:connector-curvature="0"
   style="fill:#33c481;stroke:none;stroke-width:18.44070053;stroke-linecap:butt" />
				</g>
				<g
   id="shape20798-5"
   transform="translate(19.4882,-3.54331)">
					<title
   id="title15">path4</title>
					<path
   d="m 0,93.2 h 34.97 a 2.23583,2.23583 90 0 1 2.23,2.24 v 11.48 a 2.23583,2.23583 90 0 1 -2.23,2.23 H 2.24 A 2.23583,2.23583 90 0 1 0,106.91 Z"
   class="st2"
   id="path17"
   inkscape:connector-curvature="0"
   style="fill:#185c37;stroke:none;stroke-width:18.44070053;stroke-linecap:butt" />
				</g>
				<g
   id="shape20799-7"
   transform="translate(7.08661,-19.4882)">
					<title
   id="title20">path6</title>
					<path
   d="m 0,91.43 h 36.5 a 2.48031,2.48031 90 0 1 2.48,2.48 v 15.24 H 2.48 A 2.48031,2.48031 90 0 1 0,106.67 Z"
   class="st3"
   id="path22"
   inkscape:connector-curvature="0"
   style="fill:#21a366;stroke:none;stroke-width:18.44070053;stroke-linecap:butt" />
				</g>
				<g
   id="shape20800-9"
   transform="translate(7.08661,-10.6299)">
					<title
   id="title25">path8</title>
					<path
   d="m 12.4,98.52 v 10.63 h 10.04 a 2.3687,2.3687 -90 0 0 2.36,-2.36 V 77.85 A 2.3687,2.3687 -90 0 0 22.44,75.49 H 0 v 20.77 a 2.25532,2.25531 0 0 0 2.26,2.26 z"
   class="st4"
   id="path27"
   inkscape:connector-curvature="0"
   style="fill:#000000;fill-opacity:0.09800002;stroke:none;stroke-width:18.44070053;stroke-linecap:butt" />
				</g>
				<g
   id="shape20801-11"
   transform="translate(7.08661,-8.85827)">
					<title
   id="title30">path10</title>
					<path
   d="m 12.4,96.75 v 12.4 h 8.27 a 2.3687,2.3687 -90 0 0 2.36,-2.36 V 77.85 A 2.3687,2.3687 -90 0 0 20.67,75.49 H 0 v 19 a 2.25532,2.25531 0 0 0 2.26,2.26 z"
   class="st5"
   id="path32"
   inkscape:connector-curvature="0"
   style="fill:#000000;fill-opacity:0.2;stroke:none;stroke-width:18.44070053;stroke-linecap:butt" />
				</g>
				<g
   id="shape20802-13"
   transform="translate(7.08661,-12.4016)">
					<title
   id="title35">path12</title>
					<path
   d="m 12.4,100.29 v 8.86 h 8.27 a 2.3687,2.3687 -90 0 0 2.36,-2.36 V 81.39 A 2.3687,2.3687 -90 0 0 20.67,79.03 H 0 v 19.01 a 2.25532,2.25531 0 0 0 2.26,2.25 z"
   class="st5"
   id="path37"
   inkscape:connector-curvature="0"
   style="fill:#000000;fill-opacity:0.2;stroke:none;stroke-width:18.44070053;stroke-linecap:butt" />
				</g>
				<g
   id="shape20803-15"
   transform="translate(7.08661,-12.4016)">
					<title
   id="title40">path14</title>
					<path
   d="m 12.4,100.29 v 8.86 h 6.5 a 2.3687,2.3687 -90 0 0 2.36,-2.36 V 81.39 A 2.3687,2.3687 -90 0 0 18.9,79.03 H 0 v 19.01 a 2.25532,2.25531 0 0 0 2.26,2.25 z"
   class="st5"
   id="path42"
   inkscape:connector-curvature="0"
   style="fill:#000000;fill-opacity:0.2;stroke:none;stroke-width:18.44070053;stroke-linecap:butt" />
				</g>
				<g
   id="shape20804-17"
   transform="translate(0,-14.1732)">
					<title
   id="title45">rect16</title>
					<path
   d="m 0,106.67 a 2.36167,2.47884 -180 0 0 2.36,2.48 h 23.62 a 2.36167,2.47884 -180 0 0 2.37,-2.48 V 83.28 A 2.36167,2.47884 -180 0 0 25.98,80.8 H 2.36 A 2.36167,2.47884 -180 0 0 0,83.28 Z"
   class="st6"
   id="path47"
   inkscape:connector-curvature="0"
   style="fill:#107c41;stroke:none;stroke-width:18.44070053;stroke-linecap:butt" />
				</g>
				<g
   id="shape20805-19"
   transform="translate(7.16102,-19.5059)">
					<title
   id="title50">path18</title>
					<path
   d="m 7.07,91.45 a 7.37539,7.37539 90 0 1 4.88,1.42 5.09882,5.09882 90 0 1 1.69,4.12 4.83484,4.83484 90 0 1 -0.83,2.81 5.60728,5.60728 90 0 1 -2.38,2.1 8.09114,8.09114 90 0 1 -3.58,0.75 H 3.47 v 6.5 H 0 v -17.7 z m -3.6,8.29 H 6.45 A 3.88346,3.88346 -90 0 0 9.09,98.95 1.94882,1.94882 -90 0 0 9.98,97.14 C 9.98,95.18 8.84,94.2 6.56,94.2 H 3.47 Z"
   class="st7"
   id="path52"
   inkscape:connector-curvature="0"
   style="fill:#f9f7f7;stroke:none;stroke-width:18.44070053;stroke-linecap:butt" />
				</g>
				<g
   id="shape20806-21"
   transform="translate(1.71095e-6)">
					<title
   id="title55">path20</title>
					<rect
   x="0"
   y="52.456402"
   width="56.692902"
   height="56.692902"
   class="st8"
   id="rect57"
   style="fill:none;stroke:none;stroke-width:18.44070053;stroke-linecap:butt" />
				</g>
			</g>
		</g>
	</g>
</svg>

<?xml version="1.0" encoding="UTF-8" standalone="no"?>
<!DOCTYPE svg PUBLIC "-//W3C//DTD SVG 1.1//EN" "http://www.w3.org/Graphics/SVG/1.1/DTD/svg11.dtd">
<!-- Generated by Microsoft Visio, SVG Export O365 - Project.svg Page-1 -->
<svg xmlns="http://www.w3.org/2000/svg" xmlns:xlink="http://www.w3.org/1999/xlink" xmlns:ev="http://www.w3.org/2001/xml-events"
		width="1.29964in" height="1.51596in" viewBox="0 0 93.5743 109.149" xml:space="preserve" color-interpolation-filters="sRGB"
		class="st9">
	<style type="text/css">
	<![CDATA[
		.st1 {fill:#33c481;stroke:none;stroke-linecap:butt;stroke-width:18.4407}
		.st2 {fill:#185c37;stroke:none;stroke-linecap:butt;stroke-width:18.4407}
		.st3 {fill:#21a366;stroke:none;stroke-linecap:butt;stroke-width:18.4407}
		.st4 {fill:#000000;fill-opacity:0.098;stroke:none;stroke-linecap:butt;stroke-width:18.4407}
		.st5 {fill:#000000;fill-opacity:0.2;stroke:none;stroke-linecap:butt;stroke-width:18.4407}
		.st6 {fill:#107c41;stroke:none;stroke-linecap:butt;stroke-width:18.4407}
		.st7 {fill:#f9f7f7;stroke:none;stroke-linecap:butt;stroke-width:18.4407}
		.st8 {fill:none;stroke:none;stroke-linecap:butt;stroke-width:18.4407}
		.st9 {fill:none;fill-rule:evenodd;font-size:12px;overflow:visible;stroke-linecap:square;stroke-miterlimit:3}
	]]>
	</style>

	<g>
		<title>Page-1</title>
		<g id="group20329-1" transform="translate(18.4407,-34.0157)">
			<title>O365 - Project.20329</title>
			<g id="group20330-2">
				<title>_32</title>
				<g id="shape20331-3" transform="translate(7.08661,-37.2047)">
					<title>path2</title>
					<path d="M2.24 93.2 L27.88 93.2 A2.23583 2.23583 90 0 1 30.12 95.44 L30.12 109.15 L0 109.15 L0 95.44 A2.23583
								 2.23583 90 0 1 2.24 93.2 Z" class="st1"/>
				</g>
				<g id="shape20332-5" transform="translate(19.4882,-3.54331)">
					<title>path4</title>
					<path d="M0 93.2 L34.97 93.2 A2.23583 2.23583 90 0 1 37.2 95.44 L37.2 106.92 A2.23583 2.23583 90 0 1 34.97 109.15
								 L2.24 109.15 A2.23583 2.23583 90 0 1 -0 106.91 L0 93.2 Z" class="st2"/>
				</g>
				<g id="shape20333-7" transform="translate(7.08661,-19.4882)">
					<title>path6</title>
					<path d="M0 91.43 L36.5 91.43 A2.48031 2.48031 90 0 1 38.98 93.91 L38.98 109.15 L2.48 109.15 A2.48031 2.48031
								 90 0 1 -0 106.67 L0 91.43 Z" class="st3"/>
				</g>
				<g id="shape20334-9" transform="translate(7.08661,-10.6299)">
					<title>path8</title>
					<path d="M12.4 98.52 L12.4 109.15 L22.44 109.15 A2.3687 2.3687 -90 0 0 24.8 106.79 L24.8 77.85 A2.3687 2.3687
								 -90 0 0 22.44 75.49 L0 75.49 L0 96.26 A2.25532 2.25531 -0 0 0 2.26 98.52 L12.4 98.52 Z"
							class="st4"/>
				</g>
				<g id="shape20335-11" transform="translate(7.08661,-8.85827)">
					<title>path10</title>
					<path d="M12.4 96.75 L12.4 109.15 L20.67 109.15 A2.3687 2.3687 -90 0 0 23.03 106.79 L23.03 77.85 A2.3687 2.3687
								 -90 0 0 20.67 75.49 L0 75.49 L0 94.49 A2.25532 2.25531 -0 0 0 2.26 96.75 L12.4 96.75 Z"
							class="st5"/>
				</g>
				<g id="shape20336-13" transform="translate(7.08661,-12.4016)">
					<title>path12</title>
					<path d="M12.4 100.29 L12.4 109.15 L20.67 109.15 A2.3687 2.3687 -90 0 0 23.03 106.79 L23.03 81.39 A2.3687 2.3687
								 -90 0 0 20.67 79.03 L0 79.03 L0 98.04 A2.25532 2.25531 -0 0 0 2.26 100.29 L12.4 100.29 Z"
							class="st5"/>
				</g>
				<g id="shape20337-15" transform="translate(7.08661,-12.4016)">
					<title>path14</title>
					<path d="M12.4 100.29 L12.4 109.15 L18.9 109.15 A2.3687 2.3687 -90 0 0 21.26 106.79 L21.26 81.39 A2.3687 2.3687
								 -90 0 0 18.9 79.03 L0 79.03 L0 98.04 A2.25532 2.25531 -0 0 0 2.26 100.29 L12.4 100.29 Z"
							class="st5"/>
				</g>
				<g id="shape20338-17" transform="translate(-2.89768E-13,-14.1732)">
					<title>rect16</title>
					<path d="M0 106.67 A2.36167 2.47884 -180 0 0 2.36 109.15 L25.98 109.15 A2.36167 2.47884 -180 0 0 28.35 106.67
								 L28.35 83.28 A2.36167 2.47884 -180 0 0 25.98 80.8 L2.36 80.8 A2.36167 2.47884 -180 0 0 -0 83.28
								 L0 106.67 Z" class="st6"/>
				</g>
				<g id="shape20339-19" transform="translate(7.16102,-19.5059)">
					<title>path18</title>
					<path d="M7.07 91.45 A7.37539 7.37539 90 0 1 11.95 92.87 A5.09882 5.09882 90 0 1 13.64 96.99 A4.83484 4.83484
								 90 0 1 12.81 99.8 A5.60728 5.60728 90 0 1 10.43 101.9 A8.09114 8.09114 90 0 1 6.85 102.65 L3.47
								 102.65 L3.47 109.15 L0 109.15 L0 91.45 L7.07 91.45 ZM3.47 99.74 L6.45 99.74 A3.88346 3.88346 -90
								 0 0 9.09 98.95 A1.94882 1.94882 -90 0 0 9.98 97.14 C9.98 95.18 8.84 94.2 6.56 94.2 L3.47 94.2 L3.47
								 99.74 Z" class="st7"/>
				</g>
				<g id="shape20340-21" transform="translate(1.71095E-06,0)">
					<title>path20</title>
					<rect x="0" y="52.4564" width="56.6929" height="56.6929" class="st8"/>
				</g>
			</g>
		</g>
	</g>
</svg>
